newicons/retro_bowl.svg

<?xml version="1.0" encoding="UTF-8" standalone="no"?>
<svg
   viewBox="0 0 48 48"
   version="1.1"
   id="svg1"
   sodipodi:docname="retro_bowl.svg"
   inkscape:version="1.2.2 (b0a8486541, 2022-12-01)"
   xml:space="preserve"
   xmlns:inkscape="http://www.inkscape.org/namespaces/inkscape"
   xmlns:sodipodi="http://sodipodi.sourceforge.net/DTD/sodipodi-0.dtd"
   xmlns="http://www.w3.org/2000/svg"
   xmlns:svg="http://www.w3.org/2000/svg"><sodipodi:namedview
     id="namedview1"
     pagecolor="#505050"
     bordercolor="#eeeeee"
     borderopacity="1"
     inkscape:showpageshadow="0"
     inkscape:pageopacity="0"
     inkscape:pagecheckerboard="0"
     inkscape:deskcolor="#505050"
     inkscape:zoom="8.90625"
     inkscape:cx="14.147368"
     inkscape:cy="14.540351"
     inkscape:window-width="1912"
     inkscape:window-height="1054"
     inkscape:window-x="0"
     inkscape:window-y="0"
     inkscape:window-maximized="1"
     inkscape:current-layer="svg1"
     showgrid="false" /><defs
     id="defs1"><style
       id="style1">.a { fill:none;stroke:#fff;stroke-linecap:round;stroke-linejoin:round; }
</style></defs><g
     id="g2664"><path
       style="fill:none;stroke:#ffffff;stroke-width:1;stroke-linecap:round;stroke-linejoin:round;stroke-opacity:1;stop-color:#000000"
       d="M 12.94429,5.5000004 V 12.886731 H 5.4999998 V 35.066729 H 12.974137 V 42.5 h 7.178518 V 20.332616 H 42.5 V 12.988055 H 34.940132 V 5.5000004 Z"
       id="path2638" /><g
       id="g2655"><path
         style="fill:none;stroke:#ffffff;stroke-width:1;stroke-linecap:round;stroke-linejoin:round;stroke-opacity:1;stop-color:#000000"
         d="M 25.742796,42.5 H 22.14166"
         id="path2636" /><path
         style="fill:none;stroke:#ffffff;stroke-width:1;stroke-linecap:round;stroke-linejoin:round;stroke-opacity:1;stop-color:#000000"
         d="M 34.940132,22.332616 V 33.0546"
         id="path2634" /></g><g
       id="g2651"><path
         style="fill:none;stroke:#ffffff;stroke-width:1;stroke-linecap:round;stroke-linejoin:round;stroke-opacity:1;stop-color:#000000"
         d="m 20.152655,27.693364 h 7.57911 v 7.445887 h -7.57911"
         id="path2632" /><path
         style="fill:none;stroke:#ffffff;stroke-width:1;stroke-linecap:round;stroke-linejoin:round;stroke-opacity:1;stop-color:#000000"
         d="M 27.731765,35.054111 H 42.5 V 42.5 H 27.731765 Z"
         id="path1368" /></g></g></svg>

<?xml version="1.0" encoding="UTF-8"?><svg id="b" xmlns="http://www.w3.org/2000/svg" viewBox="0 0 48 48"><defs><style>.n{fill:none;stroke:#fff;stroke-linecap:round;stroke-linejoin:round;}</style></defs><g id="f"><path id="g" class="n" d="M12.9443,5.5v7.3867h-7.4443v22.18h7.4741v7.4333h7.1785v-22.1674h22.3473v-7.3446h-7.5599v-7.4881H12.9443Z"/><g id="h"><path id="i" class="n" d="M25.7428,42.5h-3.6011"/><path id="j" class="n" d="M34.9401,22.3326v10.722"/></g><g id="k"><path id="l" class="n" d="M20.1527,27.6934h7.5791v7.4459h-7.5791"/><path id="m" class="n" d="M27.7318,35.0541h14.7682v7.4459h-14.7682v-7.4459Z"/></g></g></svg>
